icons/square/48/dianara.svg

<?xml version="1.0" encoding="UTF-8" standalone="no"?>
<svg id="svg4275" xmlns:cc="http://creativecommons.org/ns#" height="48" width="48" version="1.1" xmlns="http://www.w3.org/2000/svg" viewBox="0 0 48 48.000001" xmlns:dc="http://purl.org/dc/elements/1.1/" xmlns:rdf="http://www.w3.org/1999/02/22-rdf-syntax-ns#">
 <defs id="defs4277">
  <linearGradient id="linearGradient4312" gradientTransform="translate(0 -.003)" x2="0" y1="47" y2="1" gradientUnits="userSpaceOnUse">
   <stop id="stop7-3" style="stop-color:#3d76b0" offset="0"/>
   <stop id="stop9-6" style="stop-color:#427fbe" offset="1"/>
  </linearGradient>
  <linearGradient id="linearGradient4189" gradientUnits="userSpaceOnUse" gradientTransform="matrix(0 -1 1 0 .00221 48)" x2="47" x1="1">
   <stop id="stop7" offset="0" style="stop-color:#144072"/>
   <stop id="stop9" offset="1" style="stop-color:#174a83"/>
  </linearGradient>
  <linearGradient id="linearGradient4205" x2="47" x1="47" y1="47" y2="1" gradientUnits="userSpaceOnUse">
   <stop id="stop4201" style="stop-color:#0b2f59" offset="0"/>
   <stop id="stop4203" style="stop-color:#0d386b" offset="1"/>
  </linearGradient>
 </defs>
 <metadata id="metadata4280">
  <rdf:RDF>
   <cc:Work rdf:about="">
    <dc:format>image/svg+xml</dc:format>
    <dc:type rdf:resource="http://purl.org/dc/dcmitype/StillImage"/>
    <dc:title/>
   </cc:Work>
  </rdf:RDF>
 </metadata>
 <g id="g21">
  <path id="path23" style="opacity:.02" d="m1 43v0.25c0 2.216 1.784 4 4 4h38c2.216 0 4-1.784 4-4v-0.25c0 2.216-1.784 4-4 4h-38c-2.216 0-4-1.784-4-4zm0 0.5v0.5c0 2.216 1.784 4 4 4h38c2.216 0 4-1.784 4-4v-0.5c0 2.216-1.784 4-4 4h-38c-2.216 0-4-1.784-4-4z"/>
  <path id="path25" style="opacity:.05" d="m1 43.25v0.25c0 2.216 1.784 4 4 4h38c2.216 0 4-1.784 4-4v-0.25c0 2.216-1.784 4-4 4h-38c-2.216 0-4-1.784-4-4z"/>
  <path id="path27" style="opacity:.1" d="m1 43v0.25c0 2.216 1.784 4 4 4h38c2.216 0 4-1.784 4-4v-0.25c0 2.216-1.784 4-4 4h-38c-2.216 0-4-1.784-4-4z"/>
 </g>
 <path id="rect4186" style="fill:url(#linearGradient4189)" d="m5 1c-2.216 0-4 1.784-4 4v38c0 2.216 1.784 4 4 4h4.4453c10.555 0 37.555-20 37.555-26s-13.712-17.456-29-20z"/>
 <path id="path33" style="fill:url(#linearGradient4205)" d="m47 21-37.555 26h33.555c2.2147 0 4-1.7858 4-4z"/>
 <g id="g57">
  <g id="g59" transform="translate(0,-1004.4)">
   <path id="path61" style="opacity:.1" transform="translate(0,1004.4)" d="m47 21-31.777 22h-10.223c-2.216 0-4-1.784-4-4v4c0 2.216 1.784 4 4 4h38c2.216 0 4-1.784 4-4v-4c0 2.216-1.784 4-4 4h-26.332l30.332-21z"/>
  </g>
 </g>
 <path id="path37" style="fill:url(#linearGradient4312)" d="m18 1l29 20v-16a4 4 0 0 0 -4 -4h-25z"/>
 <path id="path41" style="fill-opacity:0.098" d="m28 21.997c0 7-4 10-8 10h-7v-20h7c4 0 8 3 8 10m-3 0c0-4-1.95-7-5.2-7h-3.8v14h3.8c3.333 0 5.2-3 5.2-7z"/>
 <path id="path47" style="fill:#e6ef5d" d="m28 20.997c0 7-4 10-8 10h-7v-20h7c4 0 8 3 8 10m-3 0c0-4-1.95-7-5.2-7h-3.8v14h3.8c3.333 0 5.2-3 5.2-7z"/>
 <path id="path4214" style="opacity:.1" d="m17 1l29.281 20.498 0.719-0.498-29-20h-1z"/>
</svg>

<svg height="48" width="48" xmlns="http://www.w3.org/2000/svg" viewBox="0 0 48 48.000001">
  <defs>
    <linearGradient id="c" gradientTransform="translate(0 -.003)" x2="0" y1="47" y2="1" gradientUnits="userSpaceOnUse">
      <stop offset="0" stop-color="#3d76b0"/>
      <stop offset="1" stop-color="#427fbe"/>
    </linearGradient>
    <linearGradient id="a" gradientUnits="userSpaceOnUse" gradientTransform="matrix(0 -1 1 0 .002 48)" x2="47" x1="1">
      <stop offset="0" stop-color="#144072"/>
      <stop offset="1" stop-color="#174a83"/>
    </linearGradient>
    <linearGradient id="b" x2="47" x1="47" y1="47" y2="1" gradientUnits="userSpaceOnUse">
      <stop offset="0" stop-color="#0b2f59"/>
      <stop offset="1" stop-color="#0d386b"/>
    </linearGradient>
  </defs>
  <path d="M1 43v.25c0 2.216 1.784 4 4 4h38c2.216 0 4-1.784 4-4V43c0 2.216-1.784 4-4 4H5c-2.216 0-4-1.784-4-4zm0 .5v.5c0 2.216 1.784 4 4 4h38c2.216 0 4-1.784 4-4v-.5c0 2.216-1.784 4-4 4H5c-2.216 0-4-1.784-4-4z" opacity=".02"/>
  <path d="M1 43.25v.25c0 2.216 1.784 4 4 4h38c2.216 0 4-1.784 4-4v-.25c0 2.216-1.784 4-4 4H5c-2.216 0-4-1.784-4-4z" opacity=".05"/>
  <path d="M1 43v.25c0 2.216 1.784 4 4 4h38c2.216 0 4-1.784 4-4V43c0 2.216-1.784 4-4 4H5c-2.216 0-4-1.784-4-4z" opacity=".1"/>
  <path d="M5 1C2.784 1 1 2.784 1 5v38c0 2.216 1.784 4 4 4h4.445C20 47 47 27 47 21S33.288 3.544 18 1z" fill="url(#a)"/>
  <path d="M47 21L9.445 47H43c2.215 0 4-1.786 4-4z" fill="url(#b)"/>
  <path d="M47 21L15.223 43H5c-2.216 0-4-1.784-4-4v4c0 2.216 1.784 4 4 4h38c2.216 0 4-1.784 4-4v-4c0 2.216-1.784 4-4 4H16.668L47 22z" opacity=".1"/>
  <path d="M18 1l29 20V5a4 4 0 0 0-4-4H18z" fill="url(#c)"/>
  <path d="M28 21.997c0 7-4 10-8 10h-7v-20h7c4 0 8 3 8 10m-3 0c0-4-1.95-7-5.2-7H16v14h3.8c3.333 0 5.2-3 5.2-7z" fill-opacity=".098"/>
  <path d="M28 20.997c0 7-4 10-8 10h-7v-20h7c4 0 8 3 8 10m-3 0c0-4-1.95-7-5.2-7H16v14h3.8c3.333 0 5.2-3 5.2-7z" fill="#e6ef5d"/>
  <path d="M17 1l29.281 20.498L47 21 18 1h-1z" opacity=".1"/>
</svg>
